; generated by PrusaSlicer 2.3.0-beta3+ on 2020-12-15 at 20:22:30 UTC

; 

; external perimeters extrusion width = 0.45mm
; perimeters extrusion width = 0.45mm
; infill extrusion width = 0.45mm
; solid infill extrusion width = 0.45mm
; top infill extrusion width = 0.40mm
; first layer extrusion width = 0.42mm

M201 X500 Y500 Z100 E5000 ; sets maximum accelerations, mm/sec^2
M203 X500 Y500 Z10 E60 ; sets maximum feedrates, mm/sec
M204 P500 R1000 T500 ; sets acceleration (P, T) and retract acceleration (R), mm/sec^2
M205 X8.00 Y8.00 Z0.40 E5.00 ; sets the jerk limits, mm/sec
M205 S0 T0 ; sets the minimum extruding and travel feed rate, mm/sec
M107
;TYPE:Custom
G90 ; use absolute coordinates
M83 ; extruder relative mode
M104 S210 ; set extruder temp
M140 S60 ; set bed temp
M190 S60 ; wait for bed temp
M109 S210 ; wait for extruder temp
G28 ; home all
G1 Z2 F240
G1 X2 Y10 F3000
G1 Z0.28 F240
G92 E0
G1 Y190 E15 F1500 ; intro line
G1 X2.3 F5000
G92 E0
G1 Y10 E15 F1200 ; intro line
G92 E0
G21 ; set units to millimeters
G90 ; use absolute coordinates
M83 ; use relative distances for extrusion
; Filament gcode
;LAYER_CHANGE
;Z:0.2
;HEIGHT:0.2
;BEFORE_LAYER_CHANGE
G92 E0
;0.2


G1 E-5.00000 F3600.000
G1 Z0.200 F9000.000
;AFTER_LAYER_CHANGE
;0.2
G1 X95.997 Y84.689
G1 E5.00000 F2400.000
;TYPE:Skirt
;WIDTH:0.42
G1 F1200.000
G1 X96.797 Y84.051 E0.03207
G1 X97.411 Y83.731 E0.02171
G1 X98.030 Y83.528 E0.02043
G1 X98.972 Y83.392 E0.02983
G1 X131.894 Y83.388 E1.03225
G1 X132.743 Y83.471 E0.02675
G1 X133.557 Y83.717 E0.02667
G1 X134.311 Y84.118 E0.02678
G1 X134.955 Y84.641 E0.02600
G1 X135.514 Y85.310 E0.02735
G1 X135.911 Y86.038 E0.02598
G1 X136.172 Y86.858 E0.02699
G1 X136.263 Y87.623 E0.02415
G1 X136.267 Y143.262 E1.74453
G1 X136.139 Y144.273 E0.03197
G1 X135.934 Y144.909 E0.02095
G1 X135.635 Y145.494 E0.02059
G1 X135.000 Y146.314 E0.03252
G1 X134.193 Y146.955 E0.03232
G1 X133.585 Y147.270 E0.02146
G1 X132.959 Y147.475 E0.02067
G1 X131.989 Y147.610 E0.03072
G1 X99.068 Y147.612 E1.03220
G1 X98.068 Y147.483 E0.03161
G1 X97.436 Y147.280 E0.02083
G1 X96.851 Y146.980 E0.02059
G1 X96.028 Y146.343 E0.03264
G1 X95.386 Y145.532 E0.03244
G1 X95.072 Y144.924 E0.02146
G1 X94.866 Y144.289 E0.02091
G1 X94.734 Y143.293 E0.03150
G1 X94.733 Y87.738 E1.74190
G1 X94.861 Y86.727 E0.03197
G1 X95.066 Y86.091 E0.02095
G1 X95.365 Y85.506 E0.02059
G1 X95.960 Y84.736 E0.03052
G1 E-3.50000 F3600.000
;WIPE_START
G1 F7200.000
G1 X96.797 Y84.051 E-0.51355
G1 X97.411 Y83.731 E-0.32896
G1 X98.030 Y83.528 E-0.30955
G1 X98.599 Y83.446 E-0.27294
;WIPE_END
G1 E-0.07500 F3600.000
G1 X111.397 Y100.136 F9000.000
G1 E5.00000 F2400.000
;TYPE:Perimeter
G1 F1200.000
G1 X111.406 Y97.881 E0.07068
G1 X111.438 Y97.516 E0.01152
G1 X111.581 Y96.844 E0.02152
G1 X111.755 Y96.528 E0.01133
G1 X111.948 Y96.263 E0.01026
G1 X112.228 Y96.013 E0.01178
G1 X112.530 Y95.800 E0.01158
G1 X112.971 Y95.610 E0.01506
G1 X113.437 Y95.453 E0.01541
G1 X113.911 Y95.366 E0.01510
G1 X114.854 Y95.299 E0.02964
G1 X115.685 Y95.360 E0.02614
G1 X116.025 Y95.410 E0.01079
G1 X116.726 Y95.576 E0.02257
G1 X117.038 Y95.696 E0.01048
G1 X117.332 Y95.838 E0.01025
G1 X117.599 Y96.019 E0.01012
G1 X117.841 Y96.218 E0.00982
G1 X118.083 Y96.542 E0.01268
G1 X118.249 Y96.929 E0.01319
G1 X118.383 Y97.583 E0.02095
G1 X118.427 Y98.335 E0.02361
G1 X118.426 Y100.136 E0.05646
G1 X111.457 Y100.136 E0.21851
G1 E-3.50000 F3600.000
;WIPE_START
G1 F7200.000
G1 X111.406 Y97.881 E-1.07103
G1 X111.438 Y97.516 E-0.17445
G1 X111.517 Y97.146 E-0.17952
;WIPE_END
G1 E-0.07500 F3600.000
G1 X118.426 Y113.253 F9000.000
G1 E5.00000 F2400.000
G1 F1200.000
G1 X120.867 Y113.253 E0.07654
G1 X120.867 Y121.137 E0.24717
G1 X109.283 Y121.137 E0.36322
G1 X120.867 Y124.313 E0.37662
G1 X120.867 Y126.578 E0.07101
G1 X113.103 Y128.716 E0.25248
G1 X120.867 Y130.877 E0.25268
G1 X120.867 Y133.225 E0.07361
G1 X108.955 Y136.386 E0.38640
G1 X108.955 Y133.699 E0.08426
G1 X116.165 Y132.027 E0.23205
G1 X108.955 Y129.995 E0.23486
G1 X108.955 Y127.392 E0.08162
G1 X115.993 Y125.424 E0.22911
G1 X108.955 Y123.706 E0.22713
G1 X108.955 Y118.541 E0.16192
G1 X118.426 Y118.541 E0.29693
G1 X118.426 Y113.313 E0.16392
G1 X118.803 Y113.630 F9000.000
;TYPE:External perimeter
G1 F1200.000
G1 X120.490 Y113.630 E0.05290
G1 X120.490 Y120.759 E0.22352
G1 X109.333 Y120.759 E0.34983
G1 X109.333 Y118.919 E0.05772
G1 X118.803 Y118.919 E0.29693
G1 X118.803 Y113.690 E0.16392
G1 X118.941 Y113.255 F9000.000
G1 E-3.50000 F3600.000
;WIPE_START
G1 F7200.000
G1 X120.490 Y113.630 E-0.80187
G1 X120.490 Y114.942 E-0.62313
;WIPE_END
G1 E-0.07500 F3600.000
G1 X109.333 Y123.410 F9000.000
G1 E5.00000 F2400.000
G1 F1200.000
G1 X109.333 Y121.541 E0.05858
G1 X120.490 Y124.601 E0.36274
G1 X120.490 Y126.290 E0.05298
G1 X111.665 Y128.721 E0.28698
G1 X112.152 Y128.842 E0.01573
G1 X120.490 Y131.164 E0.27136
G1 X120.490 Y132.935 E0.05554
G1 X109.333 Y135.896 E0.36194
G1 X109.333 Y133.998 E0.05949
G1 X117.056 Y132.208 E0.24860
G1 X117.808 Y132.058 E0.02403
G1 X116.740 Y131.797 E0.03446
G1 X109.333 Y129.710 E0.24131
G1 X109.333 Y127.678 E0.06371
G1 X115.865 Y125.843 E0.21274
G1 X116.819 Y125.612 E0.03077
G1 X117.698 Y125.438 E0.02809
G1 X117.006 Y125.283 E0.02223
G1 X109.391 Y123.424 E0.24577
G1 X108.934 Y123.378 F9000.000
G1 E-3.50000 F3600.000
;WIPE_START
G1 F7200.000
G1 X109.333 Y121.541 E-0.89470
G1 X110.409 Y121.836 E-0.53030
;WIPE_END
G1 E-0.07500 F3600.000
G1 X118.426 Y103.519 F9000.000
G1 E5.00000 F2400.000
;TYPE:Perimeter
G1 F1200.000
G1 X120.867 Y103.519 E0.07654
G1 X120.867 Y112.706 E0.28805
G1 X108.955 Y112.706 E0.37348
G1 X108.955 Y103.768 E0.28024
G1 X111.397 Y103.768 E0.07654
G1 X111.397 Y110.111 E0.19887
G1 X113.511 Y110.111 E0.06630
G1 X113.511 Y104.171 E0.18624
G1 X115.945 Y104.171 E0.07631
G1 X115.945 Y110.111 E0.18624
G1 X118.426 Y110.111 E0.07778
G1 X118.426 Y103.579 E0.20480
G1 X118.803 Y103.897 F9000.000
;TYPE:External perimeter
G1 F1200.000
G1 X120.490 Y103.897 E0.05290
G1 X120.490 Y112.329 E0.26440
G1 X109.333 Y112.329 E0.34983
G1 X109.333 Y104.146 E0.25659
G1 X111.020 Y104.146 E0.05290
G1 X111.020 Y110.488 E0.19887
G1 X113.888 Y110.488 E0.08994
G1 X113.888 Y104.548 E0.18624
G1 X115.568 Y104.548 E0.05267
G1 X115.568 Y110.488 E0.18624
G1 X118.803 Y110.488 E0.10142
G1 X118.803 Y103.957 E0.20480
G1 X118.863 Y103.501 F9000.000
G1 E-3.50000 F3600.000
;WIPE_START
G1 F7200.000
G1 X120.490 Y103.897 E-0.80187
G1 X120.490 Y105.208 E-0.62313
;WIPE_END
G1 E-0.07500 F3600.000
G1 X120.867 Y102.731 F9000.000
G1 E5.00000 F2400.000
;TYPE:Perimeter
G1 F1200.000
G1 X108.955 Y102.731 E0.37348
G1 X108.955 Y98.852 E0.12161
G1 X108.934 Y98.852 E0.00067
G1 X108.990 Y97.343 E0.04736
G1 X109.121 Y96.408 E0.02958
G1 X109.268 Y95.915 E0.01613
G1 X109.455 Y95.441 E0.01600
G1 X109.713 Y95.000 E0.01602
G1 X110.017 Y94.577 E0.01631
G1 X110.473 Y94.122 E0.02020
G1 X110.965 Y93.720 E0.01993
G1 X111.515 Y93.402 E0.01991
G1 X112.092 Y93.137 E0.01991
G1 X112.660 Y92.966 E0.01860
G1 X113.220 Y92.826 E0.01810
G1 X113.825 Y92.736 E0.01917
G1 X114.771 Y92.668 E0.02974
G1 X114.771 Y92.653 E0.00045
G1 X114.985 Y92.652 E0.00672
G1 X114.985 Y92.668 E0.00050
G1 X115.839 Y92.727 E0.02683
G1 X116.300 Y92.790 E0.01458
G1 X117.179 Y92.986 E0.02826
G1 X117.637 Y93.141 E0.01515
G1 X118.081 Y93.321 E0.01504
G1 X118.506 Y93.547 E0.01508
G1 X118.929 Y93.808 E0.01557
G1 X119.525 Y94.308 E0.02439
G1 X119.797 Y94.612 E0.01278
G1 X120.054 Y94.943 E0.01316
G1 X120.427 Y95.651 E0.02509
G1 X120.667 Y96.399 E0.02462
G1 X120.824 Y97.344 E0.03002
G1 X120.895 Y98.852 E0.04735
G1 X120.867 Y98.852 E0.00088
G1 X120.867 Y102.671 E0.11973
G1 X120.490 Y102.354 F9000.000
;TYPE:External perimeter
G1 F1200.000
G1 X115.148 Y102.354 E0.16749
G1 X115.148 Y100.513 E0.05772
G1 X118.803 Y100.513 E0.11459
G1 X118.803 Y98.712 E0.05646
G1 X120.490 Y98.712 E0.05290
G1 X120.490 Y102.294 E0.11230
G1 X120.548 Y102.749 F9000.000
G1 E-3.50000 F3600.000
;WIPE_START
G1 F7200.000
G1 X117.490 Y102.327 E-1.42500
;WIPE_END
G1 E-0.07500 F3600.000
G1 X120.500 Y98.475 F9000.000
G1 E5.00000 F2400.000
G1 F1200.000
G1 X118.813 Y98.475 E0.05289
G1 X118.758 Y97.534 E0.02954
G1 X118.613 Y96.823 E0.02277
G1 X118.411 Y96.354 E0.01601
G1 X118.109 Y95.950 E0.01581
G1 X117.825 Y95.717 E0.01152
G1 X117.521 Y95.510 E0.01153
G1 X117.188 Y95.350 E0.01160
G1 X116.837 Y95.215 E0.01176
G1 X116.096 Y95.039 E0.02389
G1 X115.726 Y94.985 E0.01173
G1 X115.148 Y94.942 E0.01817
G1 X115.148 Y93.057 E0.05910
G1 X115.800 Y93.102 E0.02050
G1 X116.233 Y93.161 E0.01369
G1 X117.077 Y93.350 E0.02713
G1 X117.505 Y93.495 E0.01417
G1 X117.922 Y93.664 E0.01409
G1 X118.319 Y93.874 E0.01409
G1 X118.708 Y94.114 E0.01432
G1 X119.262 Y94.579 E0.02268
G1 X119.507 Y94.853 E0.01152
G1 X119.736 Y95.148 E0.01171
G1 X120.078 Y95.798 E0.02302
G1 X120.301 Y96.492 E0.02287
G1 X120.385 Y96.936 E0.01417
G1 X120.449 Y97.379 E0.01402
G1 X120.497 Y98.415 E0.03252
G1 X120.510 Y98.875 F9000.000
G1 E-3.50000 F3600.000
;WIPE_START
G1 F7200.000
G1 X118.813 Y98.475 E-0.80048
G1 X118.758 Y97.534 E-0.44754
G1 X118.683 Y97.169 E-0.17698
;WIPE_END
G1 E-0.07500 F3600.000
G1 X114.608 Y94.938 F9000.000
G1 E5.00000 F2400.000
G1 F1200.000
G1 X113.863 Y94.991 E0.02342
G1 X113.342 Y95.087 E0.01661
G1 X112.836 Y95.258 E0.01673
G1 X112.345 Y95.469 E0.01678
G1 X111.993 Y95.717 E0.01351
G1 X111.675 Y96.002 E0.01339
G1 X111.433 Y96.331 E0.01281
G1 X111.227 Y96.706 E0.01340
G1 X111.064 Y97.465 E0.02435
G1 X111.030 Y97.861 E0.01245
G1 X111.015 Y98.475 E0.01926
G1 X109.325 Y98.475 E0.05299
G1 X109.367 Y97.376 E0.03448
G1 X109.491 Y96.489 E0.02809
G1 X109.624 Y96.039 E0.01472
G1 X109.795 Y95.606 E0.01457
G1 X110.030 Y95.205 E0.01457
G1 X110.305 Y94.822 E0.01478
G1 X110.726 Y94.403 E0.01864
G1 X111.180 Y94.031 E0.01840
G1 X111.688 Y93.737 E0.01840
G1 X112.226 Y93.491 E0.01854
G1 X112.760 Y93.330 E0.01751
G1 X113.294 Y93.197 E0.01725
G1 X113.867 Y93.111 E0.01815
G1 X114.608 Y93.057 E0.02331
G1 X114.608 Y94.878 E0.05709
G1 X114.678 Y95.332 F9000.000
G1 E-3.50000 F3600.000
;WIPE_START
G1 F7200.000
G1 X113.863 Y94.991 E-0.35794
G1 X113.342 Y95.087 E-0.25158
G1 X112.836 Y95.258 E-0.25352
G1 X112.345 Y95.469 E-0.25421
G1 X111.993 Y95.717 E-0.20463
G1 X111.831 Y95.862 E-0.10312
;WIPE_END
G1 E-0.07500 F3600.000
G1 X111.020 Y98.712 F9000.000
G1 E5.00000 F2400.000
G1 F1200.000
G1 X111.020 Y100.513 E0.05646
G1 X114.608 Y100.513 E0.11251
G1 X114.608 Y102.354 E0.05772
G1 X109.333 Y102.354 E0.16541
G1 X109.333 Y98.712 E0.11418
G1 X110.960 Y98.712 E0.05102
G1 X111.391 Y98.564 F9000.000
G1 E-3.50000 F3600.000
;WIPE_START
G1 F7200.000
G1 X111.020 Y100.513 E-0.85580
G1 X112.218 Y100.513 E-0.56920
;WIPE_END
G1 E-0.07500 F3600.000
G1 X98.835 Y86.382 F9000.000
G1 E5.00000 F2400.000
;TYPE:Perimeter
G1 F1200.000
G1 X99.139 Y86.352 E0.00958
G1 X131.867 Y86.352 E1.02618
G1 X132.165 Y86.382 E0.00939
G1 X132.430 Y86.462 E0.00867
G1 X132.673 Y86.592 E0.00867
G1 X132.887 Y86.768 E0.00867
G1 X133.063 Y86.981 E0.00867
G1 X133.193 Y87.225 E0.00867
G1 X133.273 Y87.490 E0.00867
G1 X133.303 Y87.794 E0.00958
G1 X133.303 Y143.206 E1.73744
G1 X133.273 Y143.510 E0.00958
G1 X133.193 Y143.775 E0.00867
G1 X133.063 Y144.019 E0.00867
G1 X132.887 Y144.232 E0.00867
G1 X132.673 Y144.408 E0.00867
G1 X132.430 Y144.538 E0.00867
G1 X132.165 Y144.618 E0.00867
G1 X131.861 Y144.648 E0.00958
G1 X99.139 Y144.648 E1.02599
G1 X98.835 Y144.618 E0.00958
G1 X98.575 Y144.540 E0.00851
G1 X98.326 Y144.407 E0.00885
G1 X98.113 Y144.232 E0.00864
G1 X97.937 Y144.019 E0.00867
G1 X97.810 Y143.779 E0.00851
G1 X97.727 Y143.510 E0.00885
G1 X97.697 Y143.206 E0.00955
G1 X97.697 Y87.794 E1.73744
G1 X97.727 Y87.490 E0.00958
G1 X97.807 Y87.225 E0.00867
G1 X97.937 Y86.981 E0.00867
G1 X98.113 Y86.768 E0.00867
G1 X98.327 Y86.592 E0.00867
G1 X98.570 Y86.462 E0.00867
G1 X98.777 Y86.399 E0.00679
G1 X98.761 Y86.010 F9000.000
;TYPE:External perimeter
G1 F1200.000
G1 X99.120 Y85.975 E0.01132
G1 X131.886 Y85.975 E1.02734
G1 X132.239 Y86.010 E0.01113
G1 X132.575 Y86.112 E0.01100
G1 X132.884 Y86.277 E0.01100
G1 X133.155 Y86.500 E0.01100
G1 X133.378 Y86.771 E0.01100
G1 X133.543 Y87.080 E0.01100
G1 X133.645 Y87.416 E0.01100
G1 X133.680 Y87.775 E0.01132
G1 X133.680 Y143.225 E1.73860
G1 X133.645 Y143.584 E0.01132
G1 X133.543 Y143.920 E0.01100
G1 X133.378 Y144.229 E0.01100
G1 X133.155 Y144.500 E0.01100
G1 X132.884 Y144.723 E0.01100
G1 X132.575 Y144.888 E0.01100
G1 X132.239 Y144.990 E0.01100
G1 X131.880 Y145.025 E0.01132
G1 X99.120 Y145.025 E1.02715
G1 X98.761 Y144.990 E0.01132
G1 X98.431 Y144.890 E0.01082
G1 X98.116 Y144.723 E0.01118
G1 X97.845 Y144.500 E0.01099
G1 X97.622 Y144.229 E0.01100
G1 X97.460 Y143.925 E0.01082
G1 X97.355 Y143.584 E0.01118
G1 X97.320 Y143.225 E0.01131
G1 X97.320 Y87.775 E1.73860
G1 X97.355 Y87.416 E0.01132
G1 X97.457 Y87.080 E0.01100
G1 X97.622 Y86.771 E0.01100
G1 X97.845 Y86.500 E0.01100
G1 X98.116 Y86.277 E0.01100
G1 X98.425 Y86.112 E0.01100
G1 X98.703 Y86.027 E0.00911
G1 X98.999 Y86.282 F9000.000
G1 E-3.50000 F3600.000
;WIPE_START
G1 F7200.000
G1 X99.120 Y85.975 E-0.19953
G1 X101.700 Y85.975 E-1.22547
;WIPE_END
G1 E-0.07500 F3600.000
G1 X114.806 Y92.854 F9000.000
G1 E5.00000 F2400.000
;TYPE:Gap fill
;WIDTH:0.205762
G1 F1200.000
G1 X114.878 Y92.931 E0.00143
G1 X114.878 Y95.030 E0.02841
G1 X114.858 Y95.048 E0.00036
;WIDTH:0.166487
G1 X114.797 Y95.110 E0.00090
G1 E-3.50000 F3600.000
;WIPE_START
G1 F7200.000
G1 X114.858 Y95.048 E-0.04142
;WIPE_END
G1 E-1.45858 F3600.000
G1 X117.026 Y95.816 F9000.000
G1 E5.00000 F2400.000
;TYPE:Solid infill
;WIDTH:0.43731
G1 F1200.000
G1 X117.665 Y96.455 E0.02966
G1 X117.836 Y96.685 E0.00938
G1 X117.978 Y97.014 E0.01175
G1 X118.058 Y97.406 E0.01312
G1 X116.454 Y95.802 E0.07439
G1 X115.972 Y95.688 E0.01624
G1 X115.750 Y95.655 E0.00737
G1 X118.126 Y98.031 E0.11020
G1 X118.144 Y98.607 E0.01889
G1 X115.140 Y95.603 E0.13931
G1 X114.853 Y95.582 E0.00944
G1 X114.581 Y95.602 E0.00896
G1 X118.144 Y99.164 E0.16524
G1 X118.143 Y99.722 E0.01828
G1 X114.060 Y95.639 E0.18937
G1 X113.578 Y95.714 E0.01600
G1 X117.716 Y99.853 E0.19193
G1 X117.159 Y99.853 E0.01829
G1 X113.153 Y95.847 E0.18577
G1 X112.758 Y96.010 E0.01402
G1 X116.601 Y99.853 E0.17824
G1 X116.043 Y99.853 E0.01829
G1 X112.416 Y96.226 E0.16820
G1 X112.129 Y96.496 E0.01294
G1 X115.485 Y99.853 E0.15569
G1 X114.928 Y99.853 E0.01829
G1 X111.909 Y96.834 E0.13999
G1 X111.849 Y96.944 E0.00411
G1 X111.781 Y97.264 E0.01072
G1 X114.370 Y99.853 E0.12008
G1 X113.812 Y99.853 E0.01829
G1 X111.702 Y97.743 E0.09785
G1 X111.680 Y98.278 E0.01758
G1 X113.254 Y99.853 E0.07302
G1 X112.697 Y99.853 E0.01829
G1 X111.679 Y98.835 E0.04720
G1 X111.679 Y99.393 E0.01830
G1 X112.309 Y100.023 E0.02919
G1 E-3.50000 F3600.000
;WIPE_START
G1 F7200.000
G1 X111.679 Y99.393 E-0.42287
G1 X111.679 Y98.835 E-0.26506
G1 X112.697 Y99.853 E-0.68373
G1 X112.809 Y99.853 E-0.05334
;WIPE_END
G1 E-0.07500 F3600.000
G1 X114.878 Y100.324 F9000.000
G1 E5.00000 F2400.000
;TYPE:Gap fill
;WIDTH:0.205764
G1 F1200.000
G1 X114.878 Y102.542 E0.03003
G1 E-3.50000 F3600.000
;WIPE_START
G1 F7200.000
G1 X114.878 Y100.324 E-1.05353
;WIPE_END
G1 E-0.44647 F3600.000
G1 X118.237 Y112.980 F9000.000
G1 E5.00000 F2400.000
;WIDTH:0.212876
G1 F1200.000
G1 X121.055 Y112.980 E0.03983
G1 E-3.50000 F3600.000
;WIPE_START
G1 F7200.000
G1 X118.237 Y112.980 E-1.33870
;WIPE_END
G1 E-0.16130 F3600.000
G1 X111.897 Y121.488 F9000.000
G1 E5.00000 F2400.000
;WIDTH:0.331222
G1 F1200.000
G1 X111.687 Y121.460 E0.00509
;WIDTH:0.283642
G1 X111.476 Y121.432 E0.00425
;WIDTH:0.236062
G1 X111.266 Y121.403 E0.00341
;WIDTH:0.188481
G1 X111.056 Y121.375 E0.00257
;WIDTH:0.140901
G1 X110.845 Y121.347 E0.00173
G1 E-3.50000 F3600.000
;WIPE_START
G1 F7200.000
G1 X111.056 Y121.375 E-0.10079
;WIPE_END
G1 E-1.39921 F3600.000
G1 X116.354 Y132.035 F9000.000
G1 E5.00000 F2400.000
;WIDTH:0.166184
G1 F1200.000
G1 X116.858 Y132.042 E0.00517
G1 E-3.50000 F3600.000
;WIPE_START
G1 F7200.000
G1 X116.354 Y132.035 E-0.23969
;WIPE_END
G1 E-1.26031 F3600.000
G1 X133.190 Y88.006 F9000.000
G1 E5.00000 F2400.000
;TYPE:Solid infill
;WIDTH:0.421021
G1 F1200.000
G1 X131.819 Y86.635 E0.06097
G1 X131.284 Y86.635 E0.01681
G1 X133.020 Y88.371 E0.07720
